;FLAVOR:Marlin
;TIME:5237
;Filament used: 3.44942m
;Layer height: 0.28
;MINX:64
;MINY:58.903
;MINZ:0.28
;MAXX:171
;MAXY:176.097
;MAXZ:9.8
;Generated with Cura_SteamEngine 4.8.0
M140 S50
M105
M190 S50
M104 S200
M105
M109 S200
M82 ;absolute extrusion mode
; Ender 3 Custom Start G-code
G92 E0 ; Reset Extruder
G28 ; Home all axes
G1 Z2.0 F3000 ; Move Z Axis up little to prevent scratching of Heat Bed
G1 X0.1 Y20 Z0.3 F5000.0 ; Move to start position
G1 X0.1 Y200.0 Z0.3 F1500.0 E15 ; Draw the first line
G1 X0.4 Y200.0 Z0.3 F5000.0 ; Move to side a little
G1 X0.4 Y20 Z0.3 F1500.0 E30 ; Draw the second line
G92 E0 ; Reset Extruder
G1 Z2.0 F3000 ; Move Z Axis up little to prevent scratching of Heat Bed
G1 X5 Y20 Z0.3 F5000.0 ; Move over to prevent blob squish
G92 E0
G92 E0
G1 F2700 E-5
;LAYER_COUNT:35
;LAYER:0
M107
G0 F6000 X67.198 Y62.167 Z0.28
;TYPE:SKIRT
G1 F2700 E0
G1 F1200 X67.886 Y61.53 E0.04366
G1 X68.626 Y60.954 E0.08732
G1 X69.412 Y60.442 E0.131
G1 X70.239 Y60 E0.17467
G1 X71.101 Y59.63 E0.21835
G1 X71.991 Y59.334 E0.26202
G1 X72.903 Y59.116 E0.30568
G1 X73.83 Y58.975 E0.34935
G1 X74.701 Y58.916 E0.39
G1 X75.022 Y58.907 E0.40495
G1 X75.33 Y58.903 E0.41929
G1 X159.293 Y58.903 E4.32896
G1 X160.149 Y58.914 E4.36882
G1 X161.085 Y58.968 E4.41248
G1 X162.013 Y59.1 E4.45613
G1 X162.927 Y59.312 E4.49982
G1 X163.819 Y59.601 E4.54348
G1 X164.684 Y59.964 E4.58716
G1 X165.514 Y60.4 E4.63081
G1 X166.305 Y60.905 E4.67451
G1 X167.049 Y61.476 E4.71818
G1 X167.742 Y62.108 E4.76186
G1 X168.379 Y62.796 E4.80552
G1 X168.954 Y63.537 E4.84919
G1 X169.465 Y64.323 E4.89284
G1 X169.907 Y65.151 E4.93655
G1 X170.276 Y66.013 E4.98021
G1 X170.571 Y66.903 E5.02387
G1 X170.789 Y67.815 E5.06753
G1 X170.929 Y68.743 E5.11123
G1 X170.987 Y69.604 E5.15141
G1 X170.996 Y69.924 E5.16632
G1 X171 Y70.233 E5.18071
G1 X170.999 Y108.344 E6.95532
G1 X170.988 Y109.067 E6.98899
G1 X170.933 Y110.004 E7.03269
G1 X170.8 Y110.932 E7.07635
G1 X170.587 Y111.845 E7.12
G1 X170.298 Y112.738 E7.16371
G1 X169.934 Y113.602 E7.20736
G1 X169.679 Y114.106 E7.23366
G1 X169.206 Y114.983 E7.28006
G1 X168.709 Y115.873 E7.32753
G1 X167.53 Y118.136 E7.44635
G1 X166.436 Y120.387 E7.56289
G1 X165.403 Y122.678 E7.67991
G1 X164.419 Y125.029 E7.79858
G1 X163.526 Y127.359 E7.91477
G1 X162.693 Y129.72 E8.03135
G1 X161.917 Y132.136 E8.14951
G1 X161.225 Y134.523 E8.26524
G1 X160.586 Y136.983 E8.38358
G1 X160.016 Y139.454 E8.50167
G1 X159.531 Y141.887 E8.61719
G1 X159.102 Y144.397 E8.73576
G1 X158.75 Y146.876 E8.85235
G1 X158.47 Y149.354 E8.96847
G1 X158.255 Y151.884 E9.0867
G1 X158.116 Y154.358 E9.20208
G1 X158.034 Y158.27 E9.38428
G1 X158.033 Y164.512 E9.67493
G1 X158.023 Y165.239 E9.70879
G1 X157.97 Y166.176 E9.75249
G1 X157.838 Y167.104 E9.79614
G1 X157.627 Y168.018 E9.83982
G1 X157.338 Y168.91 E9.88348
G1 X156.975 Y169.775 E9.92716
G1 X156.54 Y170.606 E9.97083
G1 X156.035 Y171.396 E10.01449
G1 X155.465 Y172.141 E10.05817
G1 X154.834 Y172.835 E10.10185
G1 X154.145 Y173.472 E10.14554
G1 X153.405 Y174.048 E10.18921
G1 X152.619 Y174.559 E10.23286
G1 X151.792 Y175.001 E10.27652
G1 X150.93 Y175.371 E10.3202
G1 X150.04 Y175.666 E10.36386
G1 X149.128 Y175.885 E10.40754
G1 X148.201 Y176.025 E10.45119
G1 X147.333 Y176.084 E10.4917
G1 X147.013 Y176.093 E10.50661
G1 X146.704 Y176.097 E10.521
G1 X78.999 Y176.096 E13.67363
G1 X78.301 Y176.087 E13.70613
G1 X77.365 Y176.035 E13.74978
G1 X76.436 Y175.903 E13.79348
G1 X75.522 Y175.693 E13.83714
G1 X74.629 Y175.406 E13.88082
G1 X73.764 Y175.043 E13.9245
G1 X72.933 Y174.609 E13.96816
G1 X72.142 Y174.105 E14.01183
G1 X71.397 Y173.535 E14.05551
G1 X70.703 Y172.904 E14.09918
G1 X70.066 Y172.217 E14.14281
G1 X69.489 Y171.477 E14.1865
G1 X68.977 Y170.691 E14.23018
G1 X68.534 Y169.864 E14.27387
G1 X68.163 Y169.003 E14.31752
G1 X67.867 Y168.113 E14.3612
G1 X67.648 Y167.201 E14.40487
G1 X67.507 Y166.274 E14.44853
G1 X67.447 Y165.385 E14.49002
G1 X67.438 Y165.052 E14.50553
G1 X67.434 Y164.755 E14.51937
G1 X67.434 Y134.94 E15.90768
G1 X67.397 Y132.332 E16.02913
G1 X67.29 Y129.81 E16.14667
G1 X67.113 Y127.315 E16.26314
G1 X66.865 Y124.816 E16.38007
G1 X66.547 Y122.327 E16.49691
G1 X66.153 Y119.818 E16.61518
G1 X65.694 Y117.352 E16.73198
G1 X65.16 Y114.872 E16.8501
G1 X64.524 Y112.281 E16.97433
G1 X64.36 Y111.648 E17.00478
G1 X64.164 Y110.731 E17.04844
G1 X64.047 Y109.8 E17.09213
G1 X64.013 Y109.202 E17.12003
G1 X64.004 Y108.884 E17.13484
G1 X64 Y108.573 E17.14932
G1 X64.001 Y70.428 E18.92551
G1 X64.01 Y69.763 E18.95648
G1 X64.063 Y68.827 E19.00013
G1 X64.195 Y67.898 E19.04383
G1 X64.406 Y66.984 E19.08751
G1 X64.694 Y66.092 E19.13115
G1 X65.057 Y65.227 E19.17483
G1 X65.492 Y64.396 E19.21851
G1 X65.996 Y63.606 E19.26214
G1 X66.566 Y62.861 E19.30582
G1 X67.198 Y62.167 E19.34953
G0 F6000 X67.589 Y62.342
G1 F1200 X68.274 Y61.726 E19.39243
G1 X69.01 Y61.173 E19.43529
G1 X69.791 Y60.685 E19.47818
G1 X70.611 Y60.267 E19.52103
G1 X71.465 Y59.922 E19.56392
G1 X72.345 Y59.652 E19.60678
G1 X73.245 Y59.46 E19.64963
G1 X74.159 Y59.346 E19.69252
G1 X74.712 Y59.316 E19.71831
G1 X75.033 Y59.307 E19.73326
G1 X75.33 Y59.303 E19.74709
G1 X159.293 Y59.303 E23.65676
G1 X160.143 Y59.314 E23.69635
G1 X161.062 Y59.367 E23.73921
G1 X161.973 Y59.5 E23.78208
G1 X162.869 Y59.711 E23.82494
G1 X163.743 Y59.999 E23.86779
G1 X164.59 Y60.362 E23.9107
G1 X165.401 Y60.797 E23.95355
G1 X166.171 Y61.301 E23.99641
G1 X166.895 Y61.87 E24.03928
G1 X167.567 Y62.5 E24.08218
G1 X168.182 Y63.185 E24.12504
G1 X168.735 Y63.921 E24.16791
G1 X169.222 Y64.702 E24.21077
G1 X169.639 Y65.523 E24.25364
G1 X169.984 Y66.377 E24.29653
G1 X170.253 Y67.257 E24.33938
G1 X170.445 Y68.158 E24.38228
G1 X170.558 Y69.071 E24.42511
G1 X170.587 Y69.615 E24.45048
G1 X170.596 Y69.935 E24.46539
G1 X170.6 Y70.233 E24.47927
G1 X170.599 Y108.338 E26.25359
G1 X170.588 Y109.061 E26.28726
G1 X170.534 Y109.98 E26.33013
G1 X170.4 Y110.891 E26.37301
G1 X170.188 Y111.787 E26.41588
G1 X169.899 Y112.661 E26.45874
G1 X169.327 Y113.917 E26.52301
G1 X168.938 Y114.641 E26.56128
G1 X168.348 Y115.7 E26.61773
G1 X167.173 Y117.955 E26.73613
G1 X166.076 Y120.214 E26.85306
G1 X165.035 Y122.522 E26.97096
G1 X164.046 Y124.886 E27.09028
G1 X163.159 Y127.199 E27.20563
G1 X162.311 Y129.602 E27.32429
G1 X161.538 Y132.008 E27.44196
G1 X160.837 Y134.425 E27.55915
G1 X160.196 Y136.89 E27.67774
G1 X159.62 Y139.39 E27.79721
G1 X159.137 Y141.814 E27.9123
G1 X158.71 Y144.31 E28.03021
G1 X158.355 Y146.811 E28.14783
G1 X158.069 Y149.347 E28.26667
G1 X157.855 Y151.861 E28.38415
G1 X157.716 Y154.327 E28.49916
G1 X157.634 Y158.262 E28.68243
G1 X157.633 Y164.507 E28.97323
G1 X157.623 Y165.234 E29.00708
G1 X157.57 Y166.153 E29.04995
G1 X157.438 Y167.064 E29.09281
G1 X157.227 Y167.96 E29.13567
G1 X156.94 Y168.835 E29.17855
G1 X156.577 Y169.681 E29.22142
G1 X156.143 Y170.493 E29.26429
G1 X155.639 Y171.264 E29.30718
G1 X155.071 Y171.988 E29.35003
G1 X154.442 Y172.66 E29.39289
G1 X153.757 Y173.275 E29.43575
G1 X153.021 Y173.828 E29.47862
G1 X152.24 Y174.316 E29.5215
G1 X151.42 Y174.734 E29.56436
G1 X150.566 Y175.079 E29.60725
G1 X149.686 Y175.348 E29.6501
G1 X148.785 Y175.541 E29.693
G1 X147.872 Y175.654 E29.73584
G1 X147.322 Y175.684 E29.76149
G1 X147.002 Y175.693 E29.7764
G1 X146.704 Y175.697 E29.79027
G1 X79.004 Y175.696 E32.94267
G1 X78.306 Y175.687 E32.97517
G1 X77.387 Y175.635 E33.01803
G1 X76.476 Y175.504 E33.06089
G1 X75.58 Y175.294 E33.10374
G1 X74.705 Y175.007 E33.14662
G1 X73.858 Y174.645 E33.18951
G1 X73.046 Y174.211 E33.23239
G1 X72.275 Y173.709 E33.27523
G1 X71.55 Y173.141 E33.31811
G1 X70.877 Y172.512 E33.36101
G1 X70.262 Y171.828 E33.40384
G1 X69.708 Y171.093 E33.44669
G1 X69.22 Y170.312 E33.48958
G1 X68.801 Y169.492 E33.53245
G1 X68.455 Y168.639 E33.57532
G1 X68.185 Y167.759 E33.61818
G1 X67.992 Y166.858 E33.66109
G1 X67.878 Y165.945 E33.70393
G1 X67.847 Y165.374 E33.73056
G1 X67.838 Y165.041 E33.74607
G1 X67.834 Y164.755 E33.75939
G1 X67.834 Y134.934 E35.14798
G1 X67.797 Y132.309 E35.27022
G1 X67.69 Y129.801 E35.38711
G1 X67.512 Y127.28 E35.50479
G1 X67.262 Y124.762 E35.62261
G1 X66.941 Y122.251 E35.74049
G1 X66.554 Y119.789 E35.85654
G1 X66.085 Y117.267 E35.97599
G1 X65.551 Y114.788 E36.09407
G1 X64.911 Y112.182 E36.21902
G1 X64.747 Y111.548 E36.24951
G1 X64.555 Y110.647 E36.29241
G1 X64.443 Y109.733 E36.33529
G1 X64.413 Y109.191 E36.36056
G1 X64.404 Y108.873 E36.37538
G1 X64.4 Y108.573 E36.38935
G1 X64.401 Y70.434 E38.16526
G1 X64.41 Y69.769 E38.19623
G1 X64.462 Y68.849 E38.23913
G1 X64.594 Y67.938 E38.282
G1 X64.805 Y67.042 E38.32486
G1 X65.092 Y66.167 E38.36774
G1 X65.455 Y65.321 E38.4106
G1 X65.889 Y64.509 E38.45348
G1 X66.392 Y63.738 E38.49634
G1 X66.961 Y63.014 E38.53922
G1 X67.589 Y62.342 E38.58205
G0 F6000 X67.981 Y62.52
G1 F1200 X68.662 Y61.927 E38.6241
G1 X69.394 Y61.397 E38.66618
G1 X70.169 Y60.934 E38.70821
G1 X70.982 Y60.541 E38.75026
G1 X71.827 Y60.221 E38.79234
G1 X72.696 Y59.978 E38.83435
G1 X73.584 Y59.812 E38.87642
G1 X74.723 Y59.716 E38.92964
G1 X75.044 Y59.707 E38.94459
G1 X75.33 Y59.703 E38.95791
G1 X159.293 Y59.703 E42.86758
G1 X160.137 Y59.714 E42.90689
G1 X161.039 Y59.767 E42.94896
G1 X161.932 Y59.899 E42.99099
G1 X162.81 Y60.11 E43.03304
G1 X163.666 Y60.398 E43.07509
G1 X164.493 Y60.76 E43.11713
G1 X165.285 Y61.195 E43.15921
G1 X166.036 Y61.697 E43.20127
G1 X166.739 Y62.264 E43.24332
G1 X167.389 Y62.891 E43.28538
G1 X167.981 Y63.573 E43.32743
G1 X168.511 Y64.304 E43.36947
G1 X168.973 Y65.08 E43.41153
G1 X169.366 Y65.893 E43.45357
G1 X169.684 Y66.738 E43.49561
G1 X169.927 Y67.608 E43.53768
G1 X170.092 Y68.496 E43.57973
G1 X170.187 Y69.626 E43.63254
G1 X170.196 Y69.946 E43.64744
G1 X170.2 Y70.233 E43.66081
G1 X170.199 Y108.332 E45.43486
G1 X170.188 Y109.055 E45.46853
G1 X170.134 Y109.957 E45.5106
G1 X170.001 Y110.85 E45.55264
G1 X169.789 Y111.728 E45.5947
G1 X169.501 Y112.584 E45.63676
G1 X168.974 Y113.728 E45.69541
G1 X168.508 Y114.593 E45.74116
G1 X167.987 Y115.526 E45.79092
G1 X166.816 Y117.774 E45.90894
G1 X165.723 Y120.024 E46.02542
G1 X164.665 Y122.369 E46.14521
G1 X163.679 Y124.726 E46.26418
G1 X162.78 Y127.071 E46.38112
G1 X161.925 Y129.494 E46.50076
G1 X161.159 Y131.879 E46.61741
G1 X160.454 Y134.309 E46.73522
G1 X159.803 Y136.814 E46.85574
G1 X159.233 Y139.288 E46.97396
G1 X158.744 Y141.74 E47.09038
G1 X158.313 Y144.259 E47.20938
G1 X157.956 Y146.782 E47.32804
G1 X157.67 Y149.304 E47.44622
G1 X157.458 Y151.805 E47.5631
G1 X157.316 Y154.324 E47.68058
G1 X157.234 Y158.254 E47.86362
G1 X157.233 Y164.501 E48.1545
G1 X157.223 Y165.228 E48.18836
G1 X157.171 Y166.13 E48.23043
G1 X157.039 Y167.023 E48.27246
G1 X156.828 Y167.902 E48.31455
G1 X156.541 Y168.758 E48.35659
G1 X156.179 Y169.585 E48.39863
G1 X155.745 Y170.377 E48.44068
G1 X155.243 Y171.128 E48.48275
G1 X154.677 Y171.831 E48.52477
G1 X154.05 Y172.482 E48.56686
G1 X153.369 Y173.074 E48.60888
G1 X152.638 Y173.604 E48.65092
G1 X151.862 Y174.067 E48.693
G1 X151.049 Y174.46 E48.73504
G1 X150.204 Y174.78 E48.77712
G1 X149.335 Y175.023 E48.81913
G1 X148.447 Y175.188 E48.86119
G1 X147.311 Y175.284 E48.91428
G1 X146.991 Y175.293 E48.92918
G1 X146.704 Y175.297 E48.94255
G1 X79.009 Y175.296 E52.09471
G1 X78.311 Y175.287 E52.12721
G1 X77.41 Y175.236 E52.16924
G1 X76.516 Y175.104 E52.21132
G1 X75.638 Y174.895 E52.25334
G1 X74.781 Y174.608 E52.29543
G1 X73.954 Y174.247 E52.33744
G1 X73.161 Y173.814 E52.37951
G1 X72.41 Y173.313 E52.42155
G1 X71.706 Y172.747 E52.46361
G1 X71.055 Y172.121 E52.50567
G1 X70.462 Y171.44 E52.54772
G1 X69.932 Y170.709 E52.58976
G1 X69.468 Y169.934 E52.63182
G1 X69.074 Y169.121 E52.67389
G1 X68.754 Y168.277 E52.71592
G1 X68.51 Y167.407 E52.75799
G1 X68.344 Y166.519 E52.80006
G1 X68.247 Y165.364 E52.85403
G1 X68.238 Y165.031 E52.86954
G1 X68.234 Y164.755 E52.88239
G1 X68.234 Y134.928 E54.27126
G1 X68.197 Y132.322 E54.39262
G1 X68.088 Y129.754 E54.51231
G1 X67.911 Y127.252 E54.6291
G1 X67.662 Y124.739 E54.74669
G1 X67.334 Y122.176 E54.86701
G1 X66.943 Y119.691 E54.98414
G1 X66.483 Y117.215 E55.10141
G1 X65.938 Y114.683 E55.22201
G1 X65.29 Y112.045 E55.3485
G1 X65.135 Y111.447 E55.37726
G1 X64.947 Y110.564 E55.4193
G1 X64.839 Y109.667 E55.46137
G1 X64.813 Y109.18 E55.48408
G1 X64.804 Y108.862 E55.49889
G1 X64.8 Y108.573 E55.51235
G1 X64.801 Y70.439 E57.28803
G1 X64.81 Y69.774 E57.319
G1 X64.862 Y68.872 E57.36107
G1 X64.994 Y67.979 E57.4031
G1 X65.204 Y67.101 E57.44514
G1 X65.491 Y66.244 E57.48722
G1 X65.853 Y65.417 E57.52926
G1 X66.286 Y64.625 E57.57129
G1 X66.788 Y63.874 E57.61335
G1 X67.355 Y63.17 E57.65544
G1 X67.981 Y62.52 E57.69746
G1 F2700 E52.69746
;MESH:wholeBoard.stl
G0 F6000 X112.289 Y72.562
G0 X113.594 Y71.103
G0 X114.285 Y71.303
;TYPE:WALL-INNER
G1 F2700 E57.69746
G1 F1200 X114.284 Y71.303 E57.69751
G1 X113.94 Y71.303 E57.71353
G1 X114.112 Y71.602 E57.72263
G1 X114.813 Y72.819 E57.78803
G1 X118.256 Y72.819 E57.94835
G1 X118.786 Y71.904 E57.99759
G1 X118.44 Y71.303 E58.02988
G1 X114.285 Y71.303 E58.22335
G0 F6000 X114.632 Y71.703
;TYPE:WALL-OUTER
G1 F1200 X115.044 Y72.419 E58.26182
G1 X118.025 Y72.419 E58.40063
G1 X118.324 Y71.903 E58.4284
G1 X118.209 Y71.703 E58.43914
G1 X114.632 Y71.703 E58.6057
G1 F2700 E53.6057
G0 F6000 X114.632 Y71.403
G0 X118.345 Y71.469
G0 X119.008 Y71.904
G0 X120.629 Y72.84
G0 X133.786 Y72.568
G0 X133.786 Y71.133
G0 X131.867 Y71.469
G0 X130.854 Y73.219
G0 X132.385 Y76.2
;TYPE:WALL-INNER
G1 F2700 E58.6057
G1 F1200 X135.827 Y76.2 E58.76597
G1 X137.549 Y73.219 E58.92628
G1 X136.444 Y71.303 E59.02927
G1 X131.77 Y71.303 E59.24691
G1 X130.663 Y73.219 E59.34995
G1 X132.385 Y76.2 E59.51025
G0 F6000 X132.616 Y75.8
;TYPE:WALL-OUTER
G1 F1200 X135.596 Y75.8 E59.64901
G1 X137.087 Y73.219 E59.7878
G1 X136.213 Y71.703 E59.86929
G1 X132.001 Y71.703 E60.06542
G1 X131.125 Y73.219 E60.14694
G1 X132.616 Y75.8 E60.28574
G1 F2700 E55.28574
G0 F6000 X132.356 Y75.949
G0 X135.73 Y76.034
G0 X137.358 Y73.219
G0 X136.942 Y71.747
G0 X137.273 Y71.557
G0 X137.713 Y71.303
;TYPE:WALL-INNER
G1 F2700 E60.28574
G1 F1200 X137.712 Y71.303 E60.28579
G1 X137.368 Y71.303 E60.3018
G1 X137.54 Y71.602 E60.31091
G1 X138.241 Y72.819 E60.37631
G1 X141.684 Y72.819 E60.53663
G1 X142.214 Y71.904 E60.58586
G1 X141.868 Y71.303 E60.61815
G1 X137.713 Y71.303 E60.81163
G0 F6000 X138.06 Y71.703
;TYPE:WALL-OUTER
G1 F1200 X138.472 Y72.419 E60.85009
G1 X141.453 Y72.419 E60.9889
G1 X141.752 Y71.903 E61.01667
G1 X141.637 Y71.703 E61.02741
G1 X138.06 Y71.703 E61.19397
G1 F2700 E56.19397
G0 F6000 X138.06 Y71.403
G0 X141.773 Y71.469
G0 X142.436 Y71.904
G0 X144.057 Y72.838
G0 X147.585 Y72.841
G0 X149.205 Y71.904
G0 X149.868 Y71.469
G0 X153.928 Y71.303
;TYPE:WALL-INNER
G1 F2700 E61.19397
G1 F1200 X149.773 Y71.303 E61.38745
G1 X149.427 Y71.904 E61.41974
G1 X149.957 Y72.819 E61.46898
G1 X153.4 Y72.819 E61.6293
G1 X154.101 Y71.602 E61.6947
G1 X154.273 Y71.303 E61.71076
G1 X153.929 Y71.303 E61.71984
G1 X153.928 Y71.303 E61.71988
G0 F6000 X153.581 Y71.703
;TYPE:WALL-OUTER
G1 F1200 X150.004 Y71.703 E61.88644
G1 X149.889 Y71.903 E61.89719
G1 X150.188 Y72.419 E61.92496
G1 X153.169 Y72.419 E62.06376
G1 X153.581 Y71.703 E62.10223
G1 F2700 E57.10223
G0 F6000 X153.84 Y71.852
G0 X153.511 Y73.012
G0 X153.87 Y73.219
G0 X155.911 Y76.034
G0 X158.6 Y76.2
;TYPE:WALL-INNER
G1 F2700 E62.10223
G1 F1200 X158.6 Y71.303 E62.33025
G1 X155.197 Y71.303 E62.48871
G1 X154.092 Y73.219 E62.5917
G1 X155.814 Y76.2 E62.75201
G1 X158.6 Y76.2 E62.88173
G0 F6000 X158.2 Y75.8
;TYPE:WALL-OUTER
G1 F1200 X158.2 Y71.703 E63.07251
G1 X155.428 Y71.703 E63.20158
G1 X154.554 Y73.219 E63.28307
G1 X156.045 Y75.8 E63.42186
G1 X158.2 Y75.8 E63.52221
G1 F2700 E58.52221
G0 F6000 X158.5 Y75.8
G0 X158.77 Y73.23
G0 X157.335 Y73.23
G0 X157.234 Y78.183
G0 X157.347 Y81.71
G0 X157.099 Y84.947
G0 X157.347 Y85.016
G0 X157.347 Y88.473
G0 X157.027 Y88.54
G0 X156.963 Y91.709
G0 X157.347 Y91.779
G0 X157.347 Y95.237
G0 X156.891 Y95.305
G0 X156.827 Y98.473
G0 X156.54 Y98.549
G0 X156.54 Y101.994
G0 X156.673 Y106.238
G0 X156.673 Y107.673
G0 X158.6 Y107.503
;TYPE:WALL-INNER
G1 F2700 E63.52221
G1 F1200 X158.6 Y104.053 E63.68285
G1 X155.814 Y104.053 E63.81258
G1 X154.167 Y106.903 E63.96585
G1 X154.515 Y107.503 E63.99815
