;FLAVOR:Marlin
;TIME:10364
;Filament used: 3.12313m
;Layer height: 0.12
;MINX:64
;MINY:58.903
;MINZ:0.12
;MAXX:171
;MAXY:176.097
;MAXZ:9.96
;Generated with Cura_SteamEngine 4.8.0
M140 S50
M105
M190 S50
M104 S200
M105
M109 S200
M82 ;absolute extrusion mode
; Ender 3 Custom Start G-code
G92 E0 ; Reset Extruder
G28 ; Home all axes
G1 Z2.0 F3000 ; Move Z Axis up little to prevent scratching of Heat Bed
G1 X0.1 Y20 Z0.3 F5000.0 ; Move to start position
G1 X0.1 Y200.0 Z0.3 F1500.0 E15 ; Draw the first line
G1 X0.4 Y200.0 Z0.3 F5000.0 ; Move to side a little
G1 X0.4 Y20 Z0.3 F1500.0 E30 ; Draw the second line
G92 E0 ; Reset Extruder
G1 Z2.0 F3000 ; Move Z Axis up little to prevent scratching of Heat Bed
G1 X5 Y20 Z0.3 F5000.0 ; Move over to prevent blob squish
G92 E0
G92 E0
G1 F2700 E-5
;LAYER_COUNT:83
;LAYER:0
M107
G0 F6000 X67.198 Y62.167 Z0.12
;TYPE:SKIRT
G1 F2700 E0
G1 F1200 X67.886 Y61.53 E0.01871
G1 X68.626 Y60.954 E0.03742
G1 X69.412 Y60.442 E0.05614
G1 X70.239 Y60 E0.07486
G1 X71.101 Y59.63 E0.09358
G1 X71.991 Y59.334 E0.11229
G1 X72.903 Y59.116 E0.13101
G1 X73.83 Y58.975 E0.14972
G1 X74.701 Y58.916 E0.16714
G1 X75.022 Y58.907 E0.17355
G1 X75.33 Y58.903 E0.1797
G1 X159.293 Y58.903 E1.85527
G1 X160.149 Y58.914 E1.87235
G1 X161.085 Y58.968 E1.89106
G1 X162.013 Y59.1 E1.90977
G1 X162.927 Y59.312 E1.92849
G1 X163.819 Y59.601 E1.9472
G1 X164.684 Y59.964 E1.96592
G1 X165.514 Y60.4 E1.98463
G1 X166.305 Y60.905 E2.00336
G1 X167.049 Y61.476 E2.02208
G1 X167.742 Y62.108 E2.0408
G1 X168.379 Y62.796 E2.05951
G1 X168.954 Y63.537 E2.07822
G1 X169.465 Y64.323 E2.09693
G1 X169.907 Y65.151 E2.11566
G1 X170.276 Y66.013 E2.13438
G1 X170.571 Y66.903 E2.15309
G1 X170.789 Y67.815 E2.1718
G1 X170.929 Y68.743 E2.19053
G1 X170.987 Y69.604 E2.20775
G1 X170.996 Y69.924 E2.21414
G1 X171 Y70.233 E2.2203
G1 X170.999 Y108.344 E2.98085
G1 X170.988 Y109.067 E2.99528
G1 X170.933 Y110.004 E3.01401
G1 X170.8 Y110.932 E3.03272
G1 X170.587 Y111.845 E3.05143
G1 X170.298 Y112.738 E3.07016
G1 X169.934 Y113.602 E3.08887
G1 X169.679 Y114.106 E3.10014
G1 X169.206 Y114.983 E3.12003
G1 X168.709 Y115.873 E3.14037
G1 X167.53 Y118.136 E3.19129
G1 X166.436 Y120.387 E3.24124
G1 X165.403 Y122.678 E3.29139
G1 X164.419 Y125.029 E3.34225
G1 X163.526 Y127.359 E3.39204
G1 X162.693 Y129.72 E3.44201
G1 X161.917 Y132.136 E3.49265
G1 X161.225 Y134.523 E3.54224
G1 X160.586 Y136.983 E3.59296
G1 X160.016 Y139.454 E3.64357
G1 X159.531 Y141.887 E3.69308
G1 X159.102 Y144.397 E3.7439
G1 X158.75 Y146.876 E3.79386
G1 X158.47 Y149.354 E3.84363
G1 X158.255 Y151.884 E3.8943
G1 X158.116 Y154.358 E3.94375
G1 X158.034 Y158.27 E4.02183
G1 X158.033 Y164.512 E4.1464
G1 X158.023 Y165.239 E4.16091
G1 X157.97 Y166.176 E4.17964
G1 X157.838 Y167.104 E4.19834
G1 X157.627 Y168.018 E4.21706
G1 X157.338 Y168.91 E4.23578
G1 X156.975 Y169.775 E4.2545
G1 X156.54 Y170.606 E4.27321
G1 X156.035 Y171.396 E4.29193
G1 X155.465 Y172.141 E4.31065
G1 X154.834 Y172.835 E4.32936
G1 X154.145 Y173.472 E4.34809
G1 X153.405 Y174.048 E4.3668
G1 X152.619 Y174.559 E4.38551
G1 X151.792 Y175.001 E4.40422
G1 X150.93 Y175.371 E4.42294
G1 X150.04 Y175.666 E4.44166
G1 X149.128 Y175.885 E4.46037
G1 X148.201 Y176.025 E4.47908
G1 X147.333 Y176.084 E4.49644
G1 X147.013 Y176.093 E4.50283
G1 X146.704 Y176.097 E4.509
G1 X78.999 Y176.096 E5.86013
G1 X78.301 Y176.087 E5.87406
G1 X77.365 Y176.035 E5.89276
G1 X76.436 Y175.903 E5.91149
G1 X75.522 Y175.693 E5.9302
G1 X74.629 Y175.406 E5.94892
G1 X73.764 Y175.043 E5.96764
G1 X72.933 Y174.609 E5.98635
G1 X72.142 Y174.105 E6.00507
G1 X71.397 Y173.535 E6.02379
G1 X70.703 Y172.904 E6.04251
G1 X70.066 Y172.217 E6.0612
G1 X69.489 Y171.477 E6.07993
G1 X68.977 Y170.691 E6.09865
G1 X68.534 Y169.864 E6.11737
G1 X68.163 Y169.003 E6.13608
G1 X67.867 Y168.113 E6.1548
G1 X67.648 Y167.201 E6.17352
G1 X67.507 Y166.274 E6.19223
G1 X67.447 Y165.385 E6.21001
G1 X67.438 Y165.052 E6.21666
G1 X67.434 Y164.755 E6.22259
G1 X67.434 Y134.94 E6.81758
G1 X67.397 Y132.332 E6.86963
G1 X67.29 Y129.81 E6.92
G1 X67.113 Y127.315 E6.96992
G1 X66.865 Y124.816 E7.02003
G1 X66.547 Y122.327 E7.07011
G1 X66.153 Y119.818 E7.12079
G1 X65.694 Y117.352 E7.17085
G1 X65.16 Y114.872 E7.22147
G1 X64.524 Y112.281 E7.27471
G1 X64.36 Y111.648 E7.28776
G1 X64.164 Y110.731 E7.30648
G1 X64.047 Y109.8 E7.3252
G1 X64.013 Y109.202 E7.33715
G1 X64.004 Y108.884 E7.3435
G1 X64 Y108.573 E7.34971
G1 X64.001 Y70.428 E8.11093
G1 X64.01 Y69.763 E8.12421
G1 X64.063 Y68.827 E8.14291
G1 X64.195 Y67.898 E8.16164
G1 X64.406 Y66.984 E8.18036
G1 X64.694 Y66.092 E8.19907
G1 X65.057 Y65.227 E8.21779
G1 X65.492 Y64.396 E8.2365
G1 X65.996 Y63.606 E8.2552
G1 X66.566 Y62.861 E8.27392
G1 X67.198 Y62.167 E8.29266
G0 F6000 X67.589 Y62.342
G1 F1200 X68.274 Y61.726 E8.31104
G1 X69.01 Y61.173 E8.32941
G1 X69.791 Y60.685 E8.34779
G1 X70.611 Y60.267 E8.36616
G1 X71.465 Y59.922 E8.38454
G1 X72.345 Y59.652 E8.40291
G1 X73.245 Y59.46 E8.42127
G1 X74.159 Y59.346 E8.43965
G1 X74.712 Y59.316 E8.4507
G1 X75.033 Y59.307 E8.45711
G1 X75.33 Y59.303 E8.46304
G1 X159.293 Y59.303 E10.13861
G1 X160.143 Y59.314 E10.15558
G1 X161.062 Y59.367 E10.17395
G1 X161.973 Y59.5 E10.19232
G1 X162.869 Y59.711 E10.21069
G1 X163.743 Y59.999 E10.22905
G1 X164.59 Y60.362 E10.24744
G1 X165.401 Y60.797 E10.26581
G1 X166.171 Y61.301 E10.28417
G1 X166.895 Y61.87 E10.30255
G1 X167.567 Y62.5 E10.32093
G1 X168.182 Y63.185 E10.3393
G1 X168.735 Y63.921 E10.35768
G1 X169.222 Y64.702 E10.37604
G1 X169.639 Y65.523 E10.39442
G1 X169.984 Y66.377 E10.4128
G1 X170.253 Y67.257 E10.43116
G1 X170.445 Y68.158 E10.44955
G1 X170.558 Y69.071 E10.46791
G1 X170.587 Y69.615 E10.47878
G1 X170.596 Y69.935 E10.48517
G1 X170.6 Y70.233 E10.49111
G1 X170.599 Y108.338 E11.25154
G1 X170.588 Y109.061 E11.26597
G1 X170.534 Y109.98 E11.28434
G1 X170.4 Y110.891 E11.30272
G1 X170.188 Y111.787 E11.32109
G1 X169.899 Y112.661 E11.33946
G1 X169.327 Y113.917 E11.367
G1 X168.938 Y114.641 E11.3834
G1 X168.348 Y115.7 E11.4076
G1 X167.173 Y117.955 E11.45834
G1 X166.076 Y120.214 E11.50846
G1 X165.035 Y122.522 E11.55898
G1 X164.046 Y124.886 E11.61012
G1 X163.159 Y127.199 E11.65956
G1 X162.311 Y129.602 E11.71041
G1 X161.538 Y132.008 E11.76084
G1 X160.837 Y134.425 E11.81106
G1 X160.196 Y136.89 E11.86189
G1 X159.62 Y139.39 E11.91309
G1 X159.137 Y141.814 E11.96241
G1 X158.71 Y144.31 E12.01295
G1 X158.355 Y146.811 E12.06336
G1 X158.069 Y149.347 E12.11429
G1 X157.855 Y151.861 E12.16464
G1 X157.716 Y154.327 E12.21393
G1 X157.634 Y158.262 E12.29247
G1 X157.633 Y164.507 E12.4171
G1 X157.623 Y165.234 E12.43161
G1 X157.57 Y166.153 E12.44998
G1 X157.438 Y167.064 E12.46835
G1 X157.227 Y167.96 E12.48672
G1 X156.94 Y168.835 E12.50509
G1 X156.577 Y169.681 E12.52346
G1 X156.143 Y170.493 E12.54184
G1 X155.639 Y171.264 E12.56022
G1 X155.071 Y171.988 E12.57858
G1 X154.442 Y172.66 E12.59695
G1 X153.757 Y173.275 E12.61532
G1 X153.021 Y173.828 E12.6337
G1 X152.24 Y174.316 E12.65207
G1 X151.42 Y174.734 E12.67044
G1 X150.566 Y175.079 E12.68882
G1 X149.686 Y175.348 E12.70718
G1 X148.785 Y175.541 E12.72557
G1 X147.872 Y175.654 E12.74393
G1 X147.322 Y175.684 E12.75492
G1 X147.002 Y175.693 E12.76131
G1 X146.704 Y175.697 E12.76726
G1 X79.004 Y175.696 E14.11829
G1 X78.306 Y175.687 E14.13222
G1 X77.387 Y175.635 E14.15059
G1 X76.476 Y175.504 E14.16895
G1 X75.58 Y175.294 E14.18732
G1 X74.705 Y175.007 E14.2057
G1 X73.858 Y174.645 E14.22408
G1 X73.046 Y174.211 E14.24245
G1 X72.275 Y173.709 E14.26081
G1 X71.55 Y173.141 E14.27919
G1 X70.877 Y172.512 E14.29757
G1 X70.262 Y171.828 E14.31593
G1 X69.708 Y171.093 E14.3343
G1 X69.22 Y170.312 E14.35268
G1 X68.801 Y169.492 E14.37105
G1 X68.455 Y168.639 E14.38942
G1 X68.185 Y167.759 E14.40779
G1 X67.992 Y166.858 E14.42618
G1 X67.878 Y165.945 E14.44454
G1 X67.847 Y165.374 E14.45595
G1 X67.838 Y165.041 E14.4626
G1 X67.834 Y164.755 E14.46831
G1 X67.834 Y134.934 E15.06342
G1 X67.797 Y132.309 E15.11581
G1 X67.69 Y129.801 E15.1659
G1 X67.512 Y127.28 E15.21634
G1 X67.262 Y124.762 E15.26683
G1 X66.941 Y122.251 E15.31735
G1 X66.554 Y119.789 E15.36709
G1 X66.085 Y117.267 E15.41828
G1 X65.551 Y114.788 E15.46889
G1 X64.911 Y112.182 E15.52244
G1 X64.747 Y111.548 E15.5355
G1 X64.555 Y110.647 E15.55389
G1 X64.443 Y109.733 E15.57227
G1 X64.413 Y109.191 E15.5831
G1 X64.404 Y108.873 E15.58945
G1 X64.4 Y108.573 E15.59543
G1 X64.401 Y70.434 E16.35654
G1 X64.41 Y69.769 E16.36981
G1 X64.462 Y68.849 E16.3882
G1 X64.594 Y67.938 E16.40657
G1 X64.805 Y67.042 E16.42494
G1 X65.092 Y66.167 E16.44332
G1 X65.455 Y65.321 E16.46169
G1 X65.889 Y64.509 E16.48006
G1 X66.392 Y63.738 E16.49843
G1 X66.961 Y63.014 E16.51681
G1 X67.589 Y62.342 E16.53516
G0 F6000 X67.981 Y62.52
G1 F1200 X68.662 Y61.927 E16.55318
G1 X69.394 Y61.397 E16.57122
G1 X70.169 Y60.934 E16.58923
G1 X70.982 Y60.541 E16.60725
G1 X71.827 Y60.221 E16.62529
G1 X72.696 Y59.978 E16.64329
G1 X73.584 Y59.812 E16.66132
G1 X74.723 Y59.716 E16.68413
G1 X75.044 Y59.707 E16.69054
G1 X75.33 Y59.703 E16.69625
G1 X159.293 Y59.703 E18.37182
G1 X160.137 Y59.714 E18.38867
G1 X161.039 Y59.767 E18.4067
G1 X161.932 Y59.899 E18.42471
G1 X162.81 Y60.11 E18.44273
G1 X163.666 Y60.398 E18.46075
G1 X164.493 Y60.76 E18.47877
G1 X165.285 Y61.195 E18.4968
G1 X166.036 Y61.697 E18.51483
G1 X166.739 Y62.264 E18.53285
G1 X167.389 Y62.891 E18.55088
G1 X167.981 Y63.573 E18.5689
G1 X168.511 Y64.304 E18.58692
G1 X168.973 Y65.08 E18.60494
G1 X169.366 Y65.893 E18.62296
G1 X169.684 Y66.738 E18.64098
G1 X169.927 Y67.608 E18.659
G1 X170.092 Y68.496 E18.67703
G1 X170.187 Y69.626 E18.69966
G1 X170.196 Y69.946 E18.70605
G1 X170.2 Y70.233 E18.71177
G1 X170.199 Y108.332 E19.47208
G1 X170.188 Y109.055 E19.48651
G1 X170.134 Y109.957 E19.50454
G1 X170.001 Y110.85 E19.52256
G1 X169.789 Y111.728 E19.54059
G1 X169.501 Y112.584 E19.55861
G1 X168.974 Y113.728 E19.58375
G1 X168.508 Y114.593 E19.60335
G1 X167.987 Y115.526 E19.62468
G1 X166.816 Y117.774 E19.67526
G1 X165.723 Y120.024 E19.72518
G1 X164.665 Y122.369 E19.77652
G1 X163.679 Y124.726 E19.82751
G1 X162.78 Y127.071 E19.87762
G1 X161.925 Y129.494 E19.9289
G1 X161.159 Y131.879 E19.97889
G1 X160.454 Y134.309 E20.02938
G1 X159.803 Y136.814 E20.08103
G1 X159.233 Y139.288 E20.1317
G1 X158.744 Y141.74 E20.18159
G1 X158.313 Y144.259 E20.23259
G1 X157.956 Y146.782 E20.28344
G1 X157.67 Y149.304 E20.3341
G1 X157.458 Y151.805 E20.38418
G1 X157.316 Y154.324 E20.43453
G1 X157.234 Y158.254 E20.51298
G1 X157.233 Y164.501 E20.63764
G1 X157.223 Y165.228 E20.65215
G1 X157.171 Y166.13 E20.67018
G1 X157.039 Y167.023 E20.6882
G1 X156.828 Y167.902 E20.70624
G1 X156.541 Y168.758 E20.72425
G1 X156.179 Y169.585 E20.74227
G1 X155.745 Y170.377 E20.76029
G1 X155.243 Y171.128 E20.77832
G1 X154.677 Y171.831 E20.79633
G1 X154.05 Y172.482 E20.81437
G1 X153.369 Y173.074 E20.83238
G1 X152.638 Y173.604 E20.85039
G1 X151.862 Y174.067 E20.86843
G1 X151.049 Y174.46 E20.88645
G1 X150.204 Y174.78 E20.90448
G1 X149.335 Y175.023 E20.92249
G1 X148.447 Y175.188 E20.94051
G1 X147.311 Y175.284 E20.96326
G1 X146.991 Y175.293 E20.96965
G1 X146.704 Y175.297 E20.97538
G1 X79.009 Y175.296 E22.3263
G1 X78.311 Y175.287 E22.34023
G1 X77.41 Y175.236 E22.35824
G1 X76.516 Y175.104 E22.37628
G1 X75.638 Y174.895 E22.39429
G1 X74.781 Y174.608 E22.41233
G1 X73.954 Y174.247 E22.43033
G1 X73.161 Y173.814 E22.44836
G1 X72.41 Y173.313 E22.46638
G1 X71.706 Y172.747 E22.48441
G1 X71.055 Y172.121 E22.50243
G1 X70.462 Y171.44 E22.52045
G1 X69.932 Y170.709 E22.53847
G1 X69.468 Y169.934 E22.55649
G1 X69.074 Y169.121 E22.57452
G1 X68.754 Y168.277 E22.59254
G1 X68.51 Y167.407 E22.61057
G1 X68.344 Y166.519 E22.6286
G1 X68.247 Y165.364 E22.65173
G1 X68.238 Y165.031 E22.65837
G1 X68.234 Y164.755 E22.66388
G1 X68.234 Y134.928 E23.25911
G1 X68.197 Y132.322 E23.31112
G1 X68.088 Y129.754 E23.36242
G1 X67.911 Y127.252 E23.41247
G1 X67.662 Y124.739 E23.46287
G1 X67.334 Y122.176 E23.51443
G1 X66.943 Y119.691 E23.56463
G1 X66.483 Y117.215 E23.61489
G1 X65.938 Y114.683 E23.66658
G1 X65.29 Y112.045 E23.72078
G1 X65.135 Y111.447 E23.73311
G1 X64.947 Y110.564 E23.75113
G1 X64.839 Y109.667 E23.76916
G1 X64.813 Y109.18 E23.77889
G1 X64.804 Y108.862 E23.78524
G1 X64.8 Y108.573 E23.79101
G1 X64.801 Y70.439 E24.55201
G1 X64.81 Y69.774 E24.56528
G1 X64.862 Y68.872 E24.58331
G1 X64.994 Y67.979 E24.60133
G1 X65.204 Y67.101 E24.61934
G1 X65.491 Y66.244 E24.63738
G1 X65.853 Y65.417 E24.6554
G1 X66.286 Y64.625 E24.67341
G1 X66.788 Y63.874 E24.69144
G1 X67.355 Y63.17 E24.70948
G1 X67.981 Y62.52 E24.72748
G1 F2700 E19.72748
;MESH:wholeBoard.stl
G0 F6000 X75.42 Y69.238
G0 X75.42 Y70.323
G0 X83.135 Y71.469
G0 X85.125 Y73.785
G0 X88.373 Y73.785
G0 X90.982 Y77.166
G0 X94.23 Y77.166
G0 X95.433 Y79.268
G0 X100.087 Y80.548
G0 X102.697 Y82.797
G0 X103.285 Y82.777
G0 X107.754 Y84.775
G0 X108.554 Y86.179
G0 X109.428 Y86.173
G0 X110.572 Y89.554
G0 X112.302 Y89.56
G0 X114.911 Y87.311
G0 X118.159 Y87.311
G0 X121.029 Y90.709
G0 X124.016 Y90.692
G0 X125.054 Y92.507
G0 X129.873 Y94.074
G0 X132.482 Y96.324
G0 X137.373 Y98.014
G0 X138.339 Y99.705
G0 X142.637 Y100.367
G0 X144.197 Y103.087
G0 X148.426 Y103.653
G0 X150.054 Y106.468
G0 X154.611 Y107.337
G0 X158.6 Y107.503
;TYPE:WALL-INNER
G1 F2700 E24.72748
G1 F1200 X158.6 Y104.053 E24.79633
G1 X155.814 Y104.053 E24.85193
G1 X154.167 Y106.903 E24.91762
G1 X154.515 Y107.503 E24.93146
G1 X158.6 Y107.503 E25.01298
G0 F6000 X158.2 Y107.103
;TYPE:WALL-OUTER
G1 F1200 X158.2 Y104.453 E25.06587
G1 X156.045 Y104.453 E25.10887
G1 X154.629 Y106.903 E25.16534
G1 X154.745 Y107.103 E25.16996
G1 X158.2 Y107.103 E25.2389
G0 F6000 X158.5 Y107.103
G0 X158.6 Y103.253
;TYPE:WALL-INNER
G1 F1200 X158.6 Y97.29 E25.3579
G1 X155.814 Y97.29 E25.4135
G1 X154.092 Y100.271 E25.4822
G1 X155.814 Y103.253 E25.55092
G1 X158.6 Y103.253 E25.60652
G0 F6000 X158.2 Y102.853
;TYPE:WALL-OUTER
G1 F1200 X158.2 Y97.69 E25.70955
G1 X156.045 Y97.69 E25.75256
G1 X154.554 Y100.271 E25.81204
G1 X156.045 Y102.853 E25.87154
G1 X158.2 Y102.853 E25.91454
G0 F6000 X158.5 Y102.853
G0 X158.6 Y96.49
;TYPE:WALL-INNER
G1 F1200 X158.6 Y90.526 E26.03356
G1 X155.814 Y90.526 E26.08916
G1 X154.092 Y93.508 E26.15788
G1 X155.814 Y96.49 E26.2266
G1 X158.6 Y96.49 E26.2822
G0 F6000 X158.2 Y96.09
;TYPE:WALL-OUTER
G1 F1200 X158.2 Y90.926 E26.38525
G1 X156.045 Y90.926 E26.42825
G1 X154.554 Y93.508 E26.48775
G1 X156.045 Y96.09 E26.54726
G1 X158.2 Y96.09 E26.59026
G0 F6000 X158.5 Y96.09
G0 X158.6 Y89.726
;TYPE:WALL-INNER
G1 F1200 X158.6 Y83.763 E26.70926
G1 X155.814 Y83.763 E26.76486
G1 X154.092 Y86.745 E26.83357
G1 X155.814 Y89.726 E26.90228
G1 X158.6 Y89.726 E26.95787
G0 F6000 X158.2 Y89.326
;TYPE:WALL-OUTER
G1 F1200 X158.2 Y84.163 E27.06091
G1 X156.045 Y84.163 E27.10391
G1 X154.554 Y86.745 E27.16341
G1 X156.045 Y89.326 E27.2229
G1 X158.2 Y89.326 E27.2659
G0 F6000 X158.5 Y89.326
G0 X158.6 Y82.963
;TYPE:WALL-INNER
G1 F1200 X158.6 Y77 E27.3849
G1 X155.814 Y77 E27.4405
G1 X154.092 Y79.982 E27.50922
G1 X155.814 Y82.963 E27.57792
G1 X158.6 Y82.963 E27.63351
G0 F6000 X158.2 Y82.563
;TYPE:WALL-OUTER
G1 F1200 X158.2 Y77.4 E27.73655
G1 X156.045 Y77.4 E27.77955
G1 X154.554 Y79.982 E27.83905
G1 X156.045 Y82.563 E27.89854
G1 X158.2 Y82.563 E27.94154
G0 F6000 X158.5 Y82.563
G0 X158.6 Y76.2
;TYPE:WALL-INNER
G1 F1200 X158.6 Y71.303 E28.03927
G1 X155.197 Y71.303 E28.10718
G1 X154.092 Y73.219 E28.15132
G1 X155.814 Y76.2 E28.22002
G1 X158.6 Y76.2 E28.27562
G0 F6000 X158.2 Y75.8
;TYPE:WALL-OUTER
G1 F1200 X158.2 Y71.703 E28.35738
G1 X155.428 Y71.703 E28.41269
G1 X154.554 Y73.219 E28.44762
G1 X156.045 Y75.8 E28.5071
G1 X158.2 Y75.8 E28.5501
G0 F6000 X158.5 Y75.8
G0 X155.911 Y76.034
G0 X154.283 Y73.219
G0 X153.928 Y71.303
;TYPE:WALL-INNER
G1 F1200 X149.773 Y71.303 E28.63302
G1 X149.427 Y71.904 E28.64686
G1 X149.957 Y72.819 E28.66796
G1 X153.4 Y72.819 E28.73667
G1 X154.101 Y71.602 E28.7647
G1 X154.273 Y71.303 E28.77158
G1 X153.929 Y71.303 E28.77547
G1 X153.928 Y71.303 E28.77549
G0 F6000 X153.581 Y71.703
;TYPE:WALL-OUTER
G1 F1200 X150.004 Y71.703 E28.84688
G1 X149.889 Y71.903 E28.85148
G1 X150.188 Y72.419 E28.86338
G1 X153.169 Y72.419 E28.92287
G1 X153.581 Y71.703 E28.93936
G0 F6000 X153.84 Y71.852
G0 X153.961 Y71.483
G0 X125.999 Y71.303
;TYPE:WALL-INNER
